Humanity/places/24/folder-system.svg

<?xml version="1.0" encoding="UTF-8" standalone="no"?>
<!-- Created with Inkscape (http://www.inkscape.org/) -->

<svg
   xmlns:svg="http://www.w3.org/2000/svg"
   xmlns="http://www.w3.org/2000/svg"
   xmlns:xlink="http://www.w3.org/1999/xlink"
   version="1.0"
   width="24"
   height="24"
   id="svg2">
  <defs
     id="defs4">
    <linearGradient
       id="linearGradient8265-821-176-38-919-66-249">
      <stop
         id="stop2687"
         style="stop-color:white;stop-opacity:0.27450982"
         offset="0" />
      <stop
         id="stop2689"
         style="stop-color:white;stop-opacity:0.07843138"
         offset="1" />
    </linearGradient>
    <linearGradient
       x1="18.03083"
       y1="16.407909"
       x2="20.054544"
       y2="24.627615"
       id="linearGradient3404"
       xlink:href="#linearGradient8265-821-176-38-919-66-249"
       gradientUnits="userSpaceOnUse" />
    <linearGradient
       id="linearGradient3752">
      <stop
         id="stop3754"
         style="stop-color:white;stop-opacity:1"
         offset="0" />
      <stop
         id="stop3760"
         style="stop-color:white;stop-opacity:1"
         offset="0.84754151" />
      <stop
         id="stop3756"
         style="stop-color:white;stop-opacity:0"
         offset="1" />
    </linearGradient>
    <radialGradient
       cx="4.02005"
       cy="5.5926585"
       r="10.273108"
       fx="4.02005"
       fy="5.5926585"
       id="radialGradient3402"
       xlink:href="#linearGradient3752"
       gradientUnits="userSpaceOnUse"
       gradientTransform="matrix(-0.01680222,1.3942814,-1.79662,-0.02165073,-5.3658054,-19.339419)" />
    <linearGradient
       id="linearGradient3390-178-986-453">
      <stop
         id="stop3624"
         style="stop-color:#bb5e12;stop-opacity:1"
         offset="0" />
      <stop
         id="stop3626"
         style="stop-color:#cd8033;stop-opacity:1"
         offset="1" />
    </linearGradient>
    <linearGradient
       x1="9.7045717"
       y1="20.882006"
       x2="9.7045717"
       y2="4.3030405"
       id="linearGradient3400"
       xlink:href="#linearGradient3390-178-986-453"
       gradientUnits="userSpaceOnUse"
       gradientTransform="matrix(0.9945751,0,0,0.9945751,-19.857339,-19.77827)" />
    <linearGradient
       id="linearGradient7012-661-145-733-759-865-745-661-970-94">
      <stop
         id="stop3618"
         style="stop-color:#edd563;stop-opacity:1"
         offset="0" />
      <stop
         id="stop3620"
         style="stop-color:#e08223;stop-opacity:1"
         offset="1" />
    </linearGradient>
    <radialGradient
       cx="7.8185525"
       cy="8.5608768"
       r="11.268134"
       fx="7.8185525"
       fy="8.5608768"
       id="radialGradient3398"
       xlink:href="#linearGradient7012-661-145-733-759-865-745-661-970-94"
       gradientUnits="userSpaceOnUse"
       gradientTransform="matrix(1.6899516,0,0,1.0436086,-24.967043,-20.53429)" />
    <linearGradient
       id="linearGradient5157">
      <stop
         id="stop5159"
         style="stop-color:#c1c1c1;stop-opacity:1"
         offset="0" />
      <stop
         id="stop5161"
         style="stop-color:#909090;stop-opacity:1"
         offset="1" />
    </linearGradient>
    <linearGradient
       x1="9.8763561"
       y1="2.6014566"
       x2="9.8763561"
       y2="23.061668"
       id="linearGradient3396"
       xlink:href="#linearGradient5157"
       gradientUnits="userSpaceOnUse"
       gradientTransform="translate(-19.518072,-21.496043)" />
    <linearGradient
       id="linearGradient11111">
      <stop
         id="stop11113"
         style="stop-color:white;stop-opacity:1"
         offset="0" />
      <stop
         id="stop11115"
         style="stop-color:#cdcdcd;stop-opacity:1"
         offset="0.91013825" />
      <stop
         id="stop11117"
         style="stop-color:#a1a1a1;stop-opacity:1"
         offset="1" />
    </linearGradient>
    <linearGradient
       x1="-28.531403"
       y1="17.955765"
       x2="-28.531403"
       y2="37.502914"
       id="linearGradient3394"
       xlink:href="#linearGradient11111"
       gradientUnits="userSpaceOnUse"
       gradientTransform="translate(14.859932,-35.997365)" />
    <radialGradient
       cx="605.71429"
       cy="486.64789"
       r="117.14286"
       fx="605.71429"
       fy="486.64789"
       id="radialGradient3392"
       xlink:href="#linearGradient5060"
       gradientUnits="userSpaceOnUse"
       gradientTransform="matrix(-2.774389,0,0,1.969706,112.7623,-872.8854)" />
    <linearGradient
       id="linearGradient5060">
      <stop
         id="stop5062"
         style="stop-color:black;stop-opacity:1"
         offset="0" />
      <stop
         id="stop5064"
         style="stop-color:black;stop-opacity:0"
         offset="1" />
    </linearGradient>
    <radialGradient
       cx="605.71429"
       cy="486.64789"
       r="117.14286"
       fx="605.71429"
       fy="486.64789"
       id="radialGradient3390"
       xlink:href="#linearGradient5060"
       gradientUnits="userSpaceOnUse"
       gradientTransform="matrix(2.774389,0,0,1.969706,-1891.633,-872.8854)" />
    <linearGradient
       id="linearGradient5048">
      <stop
         id="stop5050"
         style="stop-color:black;stop-opacity:0"
         offset="0" />
      <stop
         id="stop5056"
         style="stop-color:black;stop-opacity:1"
         offset="0.5" />
      <stop
         id="stop5052"
         style="stop-color:black;stop-opacity:0"
         offset="1" />
    </linearGradient>
    <linearGradient
       x1="302.85715"
       y1="366.64789"
       x2="302.85715"
       y2="609.50507"
       id="linearGradient3388"
       xlink:href="#linearGradient5048"
       gradientUnits="userSpaceOnUse"
       gradientTransform="matrix(2.774389,0,0,1.969706,-1892.179,-872.8854)" />
    <linearGradient
       x1="25"
       y1="0"
       x2="25"
       y2="16.000105"
       id="linearGradient3262"
       xlink:href="#linearGradient3309"
       gradientUnits="userSpaceOnUse"
       gradientTransform="translate(-17.058189,0)" />
    <linearGradient
       x1="63.9995"
       y1="3.1001"
       x2="63.9995"
       y2="122.8994"
       id="linearGradient3309"
       gradientUnits="userSpaceOnUse">
      <stop
         id="stop3311"
         style="stop-color:#f6f6f6;stop-opacity:1"
         offset="0" />
      <stop
         id="stop3313"
         style="stop-color:#ccc;stop-opacity:1"
         offset="1" />
    </linearGradient>
    <linearGradient
       x1="21"
       y1="0"
       x2="21"
       y2="16.004715"
       id="linearGradient3264"
       xlink:href="#linearGradient3397"
       gradientUnits="userSpaceOnUse"
       gradientTransform="translate(-17.058189,0)" />
    <linearGradient
       id="linearGradient3397">
      <stop
         id="stop3399"
         style="stop-color:#aaa;stop-opacity:1"
         offset="0" />
      <stop
         id="stop3401"
         style="stop-color:#8c8c8c;stop-opacity:1"
         offset="1" />
    </linearGradient>
    <linearGradient
       x1="86.132919"
       y1="105.105"
       x2="84.63858"
       y2="20.895"
       id="linearGradient3260"
       xlink:href="#linearGradient5128"
       gradientUnits="userSpaceOnUse"
       gradientTransform="matrix(0.09614231,0,0,0.09614231,1.8468935,1.9430362)" />
    <linearGradient
       id="linearGradient5128">
      <stop
         id="stop5130"
         style="stop-color:#e5e5e5;stop-opacity:1"
         offset="0" />
      <stop
         id="stop5132"
         style="stop-color:#ababab;stop-opacity:1"
         offset="1" />
    </linearGradient>
  </defs>
  <g
     id="layer1">
    <g
       id="g2902">
      <g
         transform="translate(0.03630422,-1.2165904e-7)"
         id="g2589">
        <g
           transform="translate(19.518072,21.496043)"
           id="g3377">
          <g
             transform="matrix(0.5459263,0,0,0.5168524,-20.520108,-22.074225)"
             id="g3490"
             style="stroke-width:1.88256383;stroke-miterlimit:4;stroke-dasharray:none">
            <g
               transform="matrix(0.02165152,0,0,0.01485743,43.0076,42.68539)"
               id="g5022"
               style="stroke-width:104.96237946;stroke-miterlimit:4;stroke-dasharray:none;display:inline">
              <rect
                 width="1339.6335"
                 height="478.35718"
                 x="-1559.2523"
                 y="-150.69685"
                 id="rect2527"
                 style="opacity:0.40206185;fill:url(#linearGradient3388);fill-opacity:1;fill-rule:nonzero;stroke:none;stroke-width:104.96237946;marker:none;visibility:visible;display:inline;overflow:visible" />
              <path
                 d="m -219.61876,-150.68038 c 0,0 0,478.33079 0,478.33079 142.874166,0.90045 345.40022,-107.16966 345.40014,-239.196175 0,-132.026537 -159.436816,-239.134595 -345.40014,-239.134615 z"
                 id="path2529"
                 style="opacity:0.40206185;fill:url(#radialGradient3390);fill-opacity:1;fill-rule:nonzero;stroke:none;stroke-width:104.96237946;marker:none;visibility:visible;display:inline;overflow:visible" />
              <path
                 d="m -1559.2523,-150.68038 c 0,0 0,478.33079 0,478.33079 -142.8742,0.90045 -345.4002,-107.16966 -345.4002,-239.196175 0,-132.026537 159.4368,-239.134595 345.4002,-239.134615 z"
                 id="path2531"
                 style="opacity:0.40206185;fill:url(#radialGradient3392);fill-opacity:1;fill-rule:nonzero;stroke:none;stroke-width:104.96237946;marker:none;visibility:visible;display:inline;overflow:visible" />
            </g>
          </g>
          <path
             d="m -18.840791,-18.926548 c -0.08554,0 -0.158869,0.09275 -0.158869,0.188543 0,5.86916 -0.04308,12.2440893 -0.04914,18.2247216 0.02908,0.895035 0.537241,1.505142 0.889665,1.508342 1.012736,0.009195 0.539272,-0.004029 1.048535,0 6.470333,-0.016099 13.5789166,-0.078173 20.0492476,-0.094271 0.054214,0.006918 -1.476715,-0.107725 -1.461594,-1.445495 10e-7,-4.672947 -0.50204704,-11.1869916 -0.50204704,-15.8599406 0,-0.186878 -0.01544,-0.290886 -0.031774,-0.377085 -0.012614,-0.06656 -0.028696,-0.09887 -0.063547,-0.125695 -0.027862,-0.02445 -0.054549,-0.05704 -0.095321,-0.06285 l -8.82013886,0 c -0.8153157,0 -1.0020562,-1.991963 -2.2136897,-1.991963 l -8.591324,0.03569 z"
             id="path3496"
             style="fill:url(#linearGradient3394);fill-opacity:1;stroke:url(#linearGradient3396);stroke-width:1.01114547;stroke-linecap:round;stroke-linejoin:round;stroke-miterlimit:4;stroke-opacity:1;stroke-dasharray:none;display:inline" />
          <path
             d="m -16.018718,-14.948917 c 10.5699016,0 13.0304436,4.6e-4 19.9935046,-0.02754 0,1.570444 0.258156,16.0402746 -0.484112,16.0402746 -0.714048,0 -14.0456506,-0.094351 -21.0087096,-0.066352 1.471684,0 1.499317,-0.622748 1.499317,-15.9463836 z"
             id="path3498"
             style="fill:url(#radialGradient3398);fill-opacity:1;stroke:url(#linearGradient3400);stroke-width:1;stroke-linecap:round;stroke-linejoin:round;stroke-miterlimit:4;stroke-opacity:1;stroke-dasharray:none;display:inline" />
          <path
             d="m 3.4207266,-13.887201 c 0,0 -16.8318006,0.09361 -18.3967956,-0.09237 -0.08294,13.8294336 -0.500948,14.4390416 -0.500948,14.4390416"
             id="path3211"
             style="opacity:0.4;fill:none;stroke:url(#radialGradient3402);stroke-width:0.98119503;stroke-linecap:butt;stroke-linejoin:miter;stroke-miterlimit:4;stroke-opacity:1;stroke-dasharray:none;display:inline" />
          <path
             d="m 3.21875,5.34375 c -1.5389481,0 -2.8125,1.273552 -2.8125,2.8125 l 0,16 c 0.005894,0.286233 0.14841957,0.612577 0.375,0.8125 0.2265775,0.199921 0.5161946,0.284272 0.84375,0.25 0.010415,2.66e-4 0.020835,2.66e-4 0.03125,0 l 45,-7.125 c 0.521773,-0.08229 0.930206,-0.53433 0.9375,-1.0625 l 0,-8.875 c 0,-1.538948 -1.273552,-2.8125 -2.8125,-2.8125 l -41.5625,0 z"
             transform="matrix(0.4450331,0,0,0.4023652,-16.698867,-17.646182)"
             id="path2608"
             style="fill:url(#linearGradient3404);fill-opacity:1;fill-rule:evenodd;stroke:none" />
        </g>
      </g>
      <rect
         width="7"
         height="1"
         rx="0.53846157"
         ry="0.5"
         x="2"
         y="4"
         id="rect2545"
         style="fill:#edbd74;fill-opacity:1;fill-rule:nonzero;stroke:none;stroke-width:1;marker:none;visibility:visible;display:block;overflow:visible;enable-background:accumulate" />
    </g>
  </g>
  <g
     transform="translate(8.0000001,8.0000001)"
     id="g2467">
    <g
       id="g2479">
      <path
         d="M 6.9375,0.5 C 6.6890831,0.5 6.5,0.68908218 6.5,0.9375 l 0,1.25 C 5.9460971,2.3297005 5.448836,2.5593783 4.96875,2.84375 L 4.0625,1.9375 c -0.1756569,-0.1756579 -0.449342,-0.1756579 -0.625,0 l -1.5,1.5 c -0.175657,0.1756579 -0.175657,0.4493421 0,0.625 L 2.84375,4.96875 C 2.5593789,5.4488356 2.329701,5.9460968 2.1875,6.5 l -1.25,0 C 0.68908301,6.5 0.5,6.6890821 0.5,6.9375 l 0,2.125 c 1e-8,0.2484178 0.189083,0.4375 0.4375,0.4375 l 1.25,0 c 0.1422009,0.553903 0.371879,1.051164 0.65625,1.53125 L 1.9375,11.9375 c -0.175657,0.175658 -0.175657,0.449342 0,0.625 l 1.5,1.5 c 0.1756579,0.175658 0.449342,0.175658 0.625,0 L 4.96875,13.15625 C 5.4488361,13.440622 5.946097,13.6703 6.5,13.8125 l 0,1.25 c 1e-7,0.248418 0.189083,0.4375 0.4375,0.4375 l 2.125,0 C 9.3109176,15.5 9.5,15.310918 9.5,15.0625 l 0,-1.25 c 0.553903,-0.1422 1.051164,-0.371878 1.53125,-0.65625 l 0.90625,0.90625 c 0.175658,0.175658 0.449342,0.175658 0.625,0 l 1.5,-1.5 c 0.175658,-0.175658 0.175658,-0.449342 0,-0.625 L 13.15625,11.03125 C 13.440622,10.551164 13.6703,10.053903 13.8125,9.5 l 1.25,0 C 15.310918,9.5 15.5,9.3109174 15.5,9.0625 l 0,-2.125 C 15.5,6.6890822 15.310917,6.5 15.0625,6.5 l -1.25,0 C 13.6703,5.9460968 13.440622,5.4488356 13.15625,4.96875 L 14.0625,4.0625 c 0.175658,-0.1756579 0.175658,-0.449342 0,-0.625 l -1.5,-1.5 c -0.175658,-0.1756579 -0.449342,-0.1756579 -0.625,0 L 11.03125,2.84375 C 10.551164,2.5593783 10.053903,2.3297005 9.5,2.1875 l 0,-1.25 C 9.4999996,0.68908218 9.310918,0.5 9.0625,0.5 l -2.125,0 z M 8,6 c 1.104,0 2,0.896 2,2 0,1.104 -0.896,2 -2,2 C 6.896,10 6,9.104 6,8 6,6.896 6.896,6 8,6 z"
         id="path2426"
         style="fill:url(#linearGradient3262);fill-opacity:1;fill-rule:nonzero;stroke:url(#linearGradient3264);stroke-width:0.99999994;stroke-linecap:butt;stroke-linejoin:round;stroke-miterlimit:4;stroke-opacity:1;stroke-dasharray:none;stroke-dashoffset:0;marker:none;visibility:visible;display:block;overflow:visible;enable-background:accumulate" />
      <path
         d="M 8,3.465116 C 5.4994229,3.465116 3.4651163,5.499423 3.4651163,8 3.4651163,10.500577 5.4994229,12.534884 8,12.534884 10.500576,12.534883 12.534884,10.500577 12.534884,8 12.534884,5.499423 10.500576,3.465116 8,3.465116 z M 8,5.55814 c 1.347907,0 2.44186,1.093953 2.44186,2.44186 0,1.347907 -1.093953,2.44186 -2.44186,2.44186 C 6.652093,10.44186 5.5581395,9.347907 5.5581395,8 5.5581395,6.652093 6.652093,5.55814 8,5.55814 z"
         id="path3315"
         style="opacity:0.05;fill:black;fill-opacity:1;stroke:none" />
      <path
         d="M 8.0000001,4 C 5.7943997,4 3.9999999,5.7944001 3.9999999,8.0000008 3.9999999,10.2056 5.7943997,12 8.0000001,12 10.2056,12 12,10.2056 12,8.0000008 12,5.7944001 10.2056,4 8.0000001,4 z"
         id="path28"
         style="fill:none;stroke:url(#linearGradient3260);stroke-width:1;stroke-miterlimit:4;stroke-dasharray:none" />
    </g>
  </g>
</svg>

<?xml version="1.0" encoding="UTF-8" standalone="no"?>
<!-- Created with Inkscape (http://www.inkscape.org/) -->
<svg id="svg3272" xmlns="http://www.w3.org/2000/svg" height="24" width="24" version="1.0" xmlns:xlink="http://www.w3.org/1999/xlink">
 <defs id="defs3274">
  <linearGradient id="linearGradient3260" y2="20.895" gradientUnits="userSpaceOnUse" x2="84.639" gradientTransform="matrix(.096142 0 0 .096142 1.8469 1.943)" y1="105.1" x1="86.133">
   <stop id="stop5130" style="stop-color:#e5e5e5" offset="0"/>
   <stop id="stop5132" style="stop-color:#ababab" offset="1"/>
  </linearGradient>
  <linearGradient id="linearGradient3264" y2="16.005" gradientUnits="userSpaceOnUse" x2="21" gradientTransform="translate(-17.058)" x1="21">
   <stop id="stop3399" style="stop-color:#aaa" offset="0"/>
   <stop id="stop3401" style="stop-color:#8c8c8c" offset="1"/>
  </linearGradient>
  <linearGradient id="linearGradient3262" y2="16" gradientUnits="userSpaceOnUse" x2="25" gradientTransform="translate(-17.058)" x1="25">
   <stop id="stop3311" style="stop-color:#f6f6f6" offset="0"/>
   <stop id="stop3313" style="stop-color:#ccc" offset="1"/>
  </linearGradient>
  <linearGradient id="linearGradient3404" y2="24.628" gradientUnits="userSpaceOnUse" x2="20.055" y1="16.408" x1="18.031">
   <stop id="stop2687" style="stop-color:#fff;stop-opacity:.27451" offset="0"/>
   <stop id="stop2689" style="stop-color:#fff;stop-opacity:.078431" offset="1"/>
  </linearGradient>
  <radialGradient id="radialGradient3402" gradientUnits="userSpaceOnUse" cy="5.5927" cx="4.02" gradientTransform="matrix(-.016802 1.3943 -1.7966 -.021651 -5.3658 -19.339)" r="10.273">
   <stop id="stop3754" style="stop-color:#fff" offset="0"/>
   <stop id="stop3760" style="stop-color:#fff" offset=".84754"/>
   <stop id="stop3756" style="stop-color:#fff;stop-opacity:0" offset="1"/>
  </radialGradient>
  <linearGradient id="linearGradient3400" y2="4.303" gradientUnits="userSpaceOnUse" x2="9.7046" gradientTransform="matrix(.99458 0 0 .99458 -19.857 -19.778)" y1="20.882" x1="9.7046">
   <stop id="stop3624" style="stop-color:#bb2b12" offset="0"/>
   <stop id="stop3626" style="stop-color:#cd7233" offset="1"/>
  </linearGradient>
  <radialGradient id="radialGradient3398" gradientUnits="userSpaceOnUse" cy="8.5609" cx="7.8186" gradientTransform="matrix(1.69 0 0 1.0436 -24.967 -20.534)" r="11.268">
   <stop id="stop3618" style="stop-color:#edb763" offset="0"/>
   <stop id="stop3270" style="stop-color:#de7f32" offset=".5"/>
   <stop id="stop3620" style="stop-color:#d24413" offset="1"/>
  </radialGradient>
  <linearGradient id="linearGradient3396" y2="23.062" gradientUnits="userSpaceOnUse" x2="9.8764" gradientTransform="translate(-19.518 -21.496)" y1="2.6015" x1="9.8764">
   <stop id="stop5159" style="stop-color:#c1c1c1" offset="0"/>
   <stop id="stop5161" style="stop-color:#909090" offset="1"/>
  </linearGradient>
  <linearGradient id="linearGradient3394" y2="37.503" gradientUnits="userSpaceOnUse" x2="-28.531" gradientTransform="translate(14.86 -35.997)" y1="17.956" x1="-28.531">
   <stop id="stop11113" style="stop-color:#fff" offset="0"/>
   <stop id="stop11115" style="stop-color:#cdcdcd" offset=".91014"/>
   <stop id="stop11117" style="stop-color:#a1a1a1" offset="1"/>
  </linearGradient>
  <radialGradient id="radialGradient3392" xlink:href="#linearGradient5060" gradientUnits="userSpaceOnUse" cy="486.65" cx="605.71" gradientTransform="matrix(-2.7744 0 0 1.9697 112.76 -872.89)" r="117.14"/>
  <linearGradient id="linearGradient5060">
   <stop id="stop5062" offset="0"/>
   <stop id="stop5064" style="stop-opacity:0" offset="1"/>
  </linearGradient>
  <radialGradient id="radialGradient3390" xlink:href="#linearGradient5060" gradientUnits="userSpaceOnUse" cy="486.65" cx="605.71" gradientTransform="matrix(2.7744 0 0 1.9697 -1891.6 -872.89)" r="117.14"/>
  <linearGradient id="linearGradient3388" y2="609.51" gradientUnits="userSpaceOnUse" x2="302.86" gradientTransform="matrix(2.7744 0 0 1.9697 -1892.2 -872.89)" y1="366.65" x1="302.86">
   <stop id="stop5050" style="stop-opacity:0" offset="0"/>
   <stop id="stop5056" offset=".5"/>
   <stop id="stop5052" style="stop-opacity:0" offset="1"/>
  </linearGradient>
 </defs>
 <g id="g2701">
  <g id="g2902">
   <g id="g2589" transform="translate(.036304 -1.2166e-7)">
    <g id="g3377" transform="translate(19.518 21.496)">
     <g id="g3490" style="stroke-width:1.8826" transform="matrix(.54593 0 0 .51685 -20.52 -22.074)">
      <g id="g5022" style="stroke-width:104.96" transform="matrix(.021652 0 0 .014857 43.008 42.685)">
       <rect id="rect2527" style="opacity:.40206;fill:url(#linearGradient3388)" height="478.36" width="1339.6" y="-150.7" x="-1559.3"/>
       <path id="path2529" style="opacity:.40206;fill:url(#radialGradient3390)" d="m-219.62-150.68v478.33c142.88 0.9 345.4-107.17 345.4-239.2 0-132.02-159.44-239.13-345.4-239.13z"/>
       <path id="path2531" style="opacity:.40206;fill:url(#radialGradient3392)" d="m-1559.3-150.68v478.33c-142.8 0.9-345.4-107.17-345.4-239.2 0-132.02 159.5-239.13 345.4-239.13z"/>
      </g>
     </g>
     <path id="path3496" style="stroke-linejoin:round;stroke:url(#linearGradient3396);stroke-linecap:round;stroke-width:1.0111;fill:url(#linearGradient3394)" d="m-18.841-18.927c-0.085 0-0.159 0.093-0.159 0.189 0 5.869-0.043 12.244-0.049 18.225 0.029 0.89475 0.537 1.5049 0.89 1.5081 1.013 0.0092 0.539-0.00407 1.048-0.00004 6.471-0.0161 13.579-0.07817 20.05-0.09427 0.0539 0.00692-1.4771-0.10773-1.4619-1.4455 0-4.673-0.50209-11.187-0.50209-15.86 0-0.187-0.01544-0.291-0.03178-0.377-0.01261-0.066-0.02869-0.099-0.06354-0.125-0.02787-0.025-0.05455-0.057-0.09533-0.063h-8.8202c-0.8153 0-1.002-1.992-2.2132-1.992l-8.592 0.035z"/>
     <path id="path3498" style="stroke-linejoin:round;stroke:url(#linearGradient3400);stroke-linecap:round;fill:url(#radialGradient3398)" d="m-16.019-14.949c10.57 0 13.031 0.001 19.994-0.027-0.0002 1.57 0.2579 16.04-0.4843 16.04-0.7141-0.0002-14.046-0.09453-21.009-0.06653 1.472 0 1.499-0.62275 1.499-15.946z"/>
     <path id="path3211" style="opacity:.4;stroke:url(#radialGradient3402);stroke-width:.98120;fill:none" d="m3.4207-13.887s-16.832 0.093-18.397-0.093c-0.083 13.83-0.501 14.439-0.501 14.439"/>
     <path id="path2608" style="fill:url(#linearGradient3404);fill-rule:evenodd" d="m3.2188 5.3438c-1.539 0-2.8126 1.2735-2.8126 2.8124l0.00005 16c0.00589 0.286 0.14842 0.613 0.375 0.813 0.22655 0.2 0.51615 0.284 0.84375 0.25h0.0312l45-7.125c0.522-0.083 0.93-0.535 0.938-1.063v-8.8748c0-1.5389-1.274-2.8124-2.813-2.8124h-41.562-0.0002z" transform="matrix(.44503 0 0 .40237 -16.699 -17.646)"/>
    </g>
   </g>
   <rect id="rect2545" style="display:block;fill:#eda374" rx=".53846" ry=".5" height="1" width="7" y="4" x="2"/>
  </g>
 </g>
 <g id="g2467" transform="translate(8 8)">
  <g id="g2479">
   <path id="path2426" style="stroke-linejoin:round;stroke:url(#linearGradient3264);display:block;fill:url(#linearGradient3262)" d="m6.9375 0.5c-0.2484 0-0.4375 0.18908-0.4375 0.4375v1.25c-0.5539 0.1422-1.0512 0.3719-1.5312 0.6563l-0.9063-0.9063c-0.1757-0.1757-0.4493-0.1757-0.625 0l-1.5 1.5c-0.1757 0.1757-0.1757 0.4493 0 0.625l0.9063 0.9063c-0.2844 0.48-0.5141 0.9773-0.6563 1.5312h-1.25c-0.24842 0-0.4375 0.1891-0.4375 0.4375v2.125c0 0.2484 0.18908 0.4375 0.4375 0.4375h1.25c0.1422 0.554 0.3719 1.051 0.6563 1.531l-0.9063 0.907c-0.1757 0.175-0.1757 0.449 0 0.624l1.5 1.5c0.1757 0.176 0.4493 0.176 0.625 0l0.9063-0.906c0.48 0.285 0.9773 0.514 1.5312 0.656v1.25c0 0.249 0.1891 0.438 0.4375 0.438h2.125c0.2484 0 0.4375-0.189 0.4375-0.438v-1.25c0.554-0.142 1.051-0.371 1.531-0.656l0.907 0.906c0.175 0.176 0.449 0.176 0.624 0l1.5-1.5c0.176-0.175 0.176-0.449 0-0.624l-0.906-0.907c0.285-0.48 0.514-0.977 0.656-1.531h1.25c0.249 0 0.438-0.1891 0.438-0.4375v-2.125c0-0.2484-0.189-0.4375-0.438-0.4375h-1.25c-0.142-0.5539-0.371-1.0512-0.656-1.5312l0.906-0.9063c0.176-0.1757 0.176-0.4493 0-0.625l-1.5-1.5c-0.175-0.1757-0.449-0.1757-0.624 0l-0.907 0.9063c-0.48-0.2844-0.977-0.5141-1.531-0.6563v-1.25c0-0.24842-0.1891-0.4375-0.4375-0.4375h-2.125zm1.0625 5.5c1.104 0 2 0.896 2 2s-0.896 2-2 2-2-0.896-2-2 0.896-2 2-2z"/>
   <path id="path3315" style="opacity:.05" d="m8 3.4651c-2.5006 0-4.5349 2.0343-4.5349 4.5349 0 2.501 2.0343 4.535 4.5349 4.535 2.501 0 4.535-2.034 4.535-4.535 0-2.5006-2.034-4.5349-4.535-4.5349zm0 2.093c1.3479 0 2.442 1.094 2.442 2.4419s-1.0941 2.442-2.442 2.442-2.4419-1.0941-2.4419-2.442 1.094-2.4419 2.4419-2.4419z"/>
   <path id="path28" style="stroke:url(#linearGradient3260);fill:none" d="m8 4c-2.2056 0-4 1.7944-4 4 0 2.206 1.7944 4 4 4 2.206 0 4-1.794 4-4 0-2.2056-1.794-4-4-4z"/>
  </g>
 </g>
</svg>
